X: 21432
M: C|
L: 1/8
K: Am
e3^d e2g2 | d>e dB G2AB | c2BA e2d>B | A3G E2A2 |\
e3^d e2g2 | dedB G2AB | c2BA e2dB | A3G E2 |]
|: A2 |\
d>eg>a {ga}b2ab | g2G>A B2AG | c2B>A e2d>B | A3G E2 |]


